static/img/kroki/8193cdad4fda8ee56659ab35f47419fb.svg

<?xml version="1.0" encoding="us-ascii" standalone="no"?><svg xmlns="http://www.w3.org/2000/svg" xmlns:xlink="http://www.w3.org/1999/xlink" contentStyleType="text/css" height="352px" preserveAspectRatio="none" style="width:769px;height:352px;" version="1.1" viewBox="0 0 769 352" width="769px" zoomAndPan="magnify"><defs/><g><!--class aws_sagemaker_artifact--><g id="elem_aws_sagemaker_artifact"><rect codeLine="22" fill="#3D176E" height="39.7891" id="aws_sagemaker_artifact" rx="2.5" ry="2.5" style="stroke:#000D19;stroke-width:0.5;" width="245" x="122.5" y="306.37"/><ellipse cx="137.5" cy="326.2645" fill="#ADD1B2" rx="11" ry="11" style="stroke:#181818;stroke-width:1.0;"/><path d="M140.4688,331.9052 Q139.8906,332.202 139.25,332.3427 Q138.6094,332.4989 137.9063,332.4989 Q135.4063,332.4989 134.0781,330.8583 Q132.7656,329.202 132.7656,326.077 Q132.7656,322.952 134.0781,321.2958 Q135.4063,319.6395 137.9063,319.6395 Q138.6094,319.6395 139.25,319.7958 Q139.9063,319.952 140.4688,320.2489 L140.4688,322.9677 Q139.8438,322.3895 139.25,322.1239 Q138.6563,321.8427 138.0313,321.8427 Q136.6875,321.8427 136,322.9208 Q135.3125,323.9833 135.3125,326.077 Q135.3125,328.1708 136,329.2489 Q136.6875,330.3114 138.0313,330.3114 Q138.6563,330.3114 139.25,330.0458 Q139.8438,329.7645 140.4688,329.1864 L140.4688,331.9052 Z " fill="#000000"/><text fill="#D9B8FF" font-family="Helvetica" font-size="17" lengthAdjust="spacing" textLength="203" x="156.5" y="332.1498">aws_sagemaker_artifact</text></g><!--class aws_sagemaker_code_repository--><g id="elem_aws_sagemaker_code_repository"><rect codeLine="24" fill="#3D176E" height="39.7891" id="aws_sagemaker_code_repository" rx="2.5" ry="2.5" style="stroke:#000D19;stroke-width:0.5;" width="316" x="7" y="7"/><ellipse cx="22" cy="26.8945" fill="#ADD1B2" rx="11" ry="11" style="stroke:#181818;stroke-width:1.0;"/><path d="M24.9688,32.5352 Q24.3906,32.832 23.75,32.9727 Q23.1094,33.1289 22.4063,33.1289 Q19.9063,33.1289 18.5781,31.4883 Q17.2656,29.832 17.2656,26.707 Q17.2656,23.582 18.5781,21.9258 Q19.9063,20.2695 22.4063,20.2695 Q23.1094,20.2695 23.75,20.4258 Q24.4063,20.582 24.9688,20.8789 L24.9688,23.5977 Q24.3438,23.0195 23.75,22.7539 Q23.1563,22.4727 22.5313,22.4727 Q21.1875,22.4727 20.5,23.5508 Q19.8125,24.6133 19.8125,26.707 Q19.8125,28.8008 20.5,29.8789 Q21.1875,30.9414 22.5313,30.9414 Q23.1563,30.9414 23.75,30.6758 Q24.3438,30.3945 24.9688,29.8164 L24.9688,32.5352 Z " fill="#000000"/><text fill="#D9B8FF" font-family="Helvetica" font-size="17" lengthAdjust="spacing" textLength="274" x="41" y="32.7798">aws_sagemaker_code_repository</text></g><!--class aws_sagemaker_domain--><g id="elem_aws_sagemaker_domain"><rect codeLine="26" fill="#3D176E" height="39.7891" id="aws_sagemaker_domain" rx="2.5" ry="2.5" style="stroke:#000D19;stroke-width:0.5;" width="248" x="130" y="106.79"/><ellipse cx="145" cy="126.6845" fill="#ADD1B2" rx="11" ry="11" style="stroke:#181818;stroke-width:1.0;"/><path d="M147.9688,132.3252 Q147.3906,132.622 146.75,132.7627 Q146.1094,132.9189 145.4063,132.9189 Q142.9063,132.9189 141.5781,131.2783 Q140.2656,129.622 140.2656,126.497 Q140.2656,123.372 141.5781,121.7158 Q142.9063,120.0595 145.4063,120.0595 Q146.1094,120.0595 146.75,120.2158 Q147.4063,120.372 147.9688,120.6689 L147.9688,123.3877 Q147.3438,122.8095 146.75,122.5439 Q146.1563,122.2627 145.5313,122.2627 Q144.1875,122.2627 143.5,123.3408 Q142.8125,124.4033 142.8125,126.497 Q142.8125,128.5908 143.5,129.6689 Q144.1875,130.7314 145.5313,130.7314 Q146.1563,130.7314 146.75,130.4658 Q147.3438,130.1845 147.9688,129.6064 L147.9688,132.3252 Z " fill="#000000"/><text fill="#D9B8FF" font-family="Helvetica" font-size="17" lengthAdjust="spacing" textLength="206" x="164" y="132.5698">aws_sagemaker_domain</text></g><!--class aws_sagemaker_project--><g id="elem_aws_sagemaker_project"><rect codeLine="28" fill="#3D176E" height="39.7891" id="aws_sagemaker_project" rx="2.5" ry="2.5" style="stroke:#000D19;stroke-width:0.5;" width="242" x="520" y="206.58"/><ellipse cx="535" cy="226.4745" fill="#ADD1B2" rx="11" ry="11" style="stroke:#181818;stroke-width:1.0;"/><path d="M537.9688,232.1152 Q537.3906,232.412 536.75,232.5527 Q536.1094,232.7089 535.4063,232.7089 Q532.9063,232.7089 531.5781,231.0683 Q530.2656,229.412 530.2656,226.287 Q530.2656,223.162 531.5781,221.5058 Q532.9063,219.8495 535.4063,219.8495 Q536.1094,219.8495 536.75,220.0058 Q537.4063,220.162 537.9688,220.4589 L537.9688,223.1777 Q537.3438,222.5995 536.75,222.3339 Q536.1563,222.0527 535.5313,222.0527 Q534.1875,222.0527 533.5,223.1308 Q532.8125,224.1933 532.8125,226.287 Q532.8125,228.3808 533.5,229.4589 Q534.1875,230.5214 535.5313,230.5214 Q536.1563,230.5214 536.75,230.2558 Q537.3438,229.9745 537.9688,229.3964 L537.9688,232.1152 Z " fill="#000000"/><text fill="#D9B8FF" font-family="Helvetica" font-size="17" lengthAdjust="spacing" textLength="200" x="554" y="232.3598">aws_sagemaker_project</text></g><!--class aws_sagemaker_user_profile--><g id="elem_aws_sagemaker_user_profile"><rect codeLine="30" fill="#3D176E" height="39.7891" id="aws_sagemaker_user_profile" rx="2.5" ry="2.5" style="stroke:#000D19;stroke-width:0.5;" width="283" x="201.5" y="206.58"/><ellipse cx="216.5" cy="226.4745" fill="#ADD1B2" rx="11" ry="11" style="stroke:#181818;stroke-width:1.0;"/><path d="M219.4688,232.1152 Q218.8906,232.412 218.25,232.5527 Q217.6094,232.7089 216.9063,232.7089 Q214.4063,232.7089 213.0781,231.0683 Q211.7656,229.412 211.7656,226.287 Q211.7656,223.162 213.0781,221.5058 Q214.4063,219.8495 216.9063,219.8495 Q217.6094,219.8495 218.25,220.0058 Q218.9063,220.162 219.4688,220.4589 L219.4688,223.1777 Q218.8438,222.5995 218.25,222.3339 Q217.6563,222.0527 217.0313,222.0527 Q215.6875,222.0527 215,223.1308 Q214.3125,224.1933 214.3125,226.287 Q214.3125,228.3808 215,229.4589 Q215.6875,230.5214 217.0313,230.5214 Q217.6563,230.5214 218.25,230.2558 Q218.8438,229.9745 219.4688,229.3964 L219.4688,232.1152 Z " fill="#000000"/><text fill="#D9B8FF" font-family="Helvetica" font-size="17" lengthAdjust="spacing" textLength="241" x="235.5" y="232.3598">aws_sagemaker_user_profile</text></g><!--link aws_sagemaker_code_repository to aws_sagemaker_artifact--><g id="link_aws_sagemaker_code_repository_aws_sagemaker_artifact"><path codeLine="32" d="M147.75,46.99 C135.39,62.03 119.79,84.17 113,106.79 C107.92,123.73 108.27,129.54 113,146.58 C131.77,214.22 186.1702,271.9205 218.5902,301.9805 " fill="none" id="aws_sagemaker_code_repository-to-aws_sagemaker_artifact" style="stroke:#1A83AF;stroke-width:2.0;"/><polygon fill="#1A83AF" points="222.99,306.06,219.11,297.0076,219.3235,302.6604,213.6707,302.874,222.99,306.06" style="stroke:#1A83AF;stroke-width:2.0;"/></g><!--link aws_sagemaker_code_repository to aws_sagemaker_domain--><g id="link_aws_sagemaker_code_repository_aws_sagemaker_domain"><path codeLine="33" d="M182.58,47.22 C198.19,64.36 216.8215,84.8426 232.4115,101.9726 " fill="none" id="aws_sagemaker_code_repository-to-aws_sagemaker_domain" style="stroke:#1A83AF;stroke-width:2.0;"/><polygon fill="#1A83AF" points="236.45,106.41,233.3505,97.0616,233.0846,102.7122,227.434,102.4462,236.45,106.41" style="stroke:#1A83AF;stroke-width:2.0;"/></g><!--link aws_sagemaker_domain to aws_sagemaker_artifact--><g id="link_aws_sagemaker_domain_aws_sagemaker_artifact"><path codeLine="34" d="M229.51,146.84 C213.18,161.27 193.1,182.62 184,206.58 C170.1,243.18 196.9216,278.9133 219.6216,301.8733 " fill="none" id="aws_sagemaker_domain-to-aws_sagemaker_artifact" style="stroke:#1A83AF;stroke-width:2.0;"/><polygon fill="#1A83AF" points="223.84,306.14,220.3569,296.9276,220.3247,302.5844,214.6679,302.5522,223.84,306.14" style="stroke:#1A83AF;stroke-width:2.0;"/></g><!--link aws_sagemaker_domain to aws_sagemaker_user_profile--><g id="link_aws_sagemaker_domain_aws_sagemaker_user_profile"><path codeLine="35" d="M271.58,147.01 C287.19,164.15 305.8228,184.6214 321.4128,201.7614 " fill="none" id="aws_sagemaker_domain-to-aws_sagemaker_user_profile" style="stroke:#1A83AF;stroke-width:2.0;"/><polygon fill="#1A83AF" points="325.45,206.2,322.3533,196.8507,322.0857,202.5012,316.4351,202.2336,325.45,206.2" style="stroke:#1A83AF;stroke-width:2.0;"/></g><!--link aws_sagemaker_project to aws_sagemaker_artifact--><g id="link_aws_sagemaker_project_aws_sagemaker_artifact"><path codeLine="36" d="M562.76,246.8 C493.45,263.91 398.605,287.3316 329.235,304.4616 " fill="none" id="aws_sagemaker_project-to-aws_sagemaker_artifact" style="stroke:#1A83AF;stroke-width:2.0;"/><polygon fill="#1A83AF" points="323.41,305.9,333.1065,307.6257,328.2642,304.7013,331.1886,299.859,323.41,305.9" style="stroke:#1A83AF;stroke-width:2.0;"/></g><!--link aws_sagemaker_user_profile to aws_sagemaker_artifact--><g id="link_aws_sagemaker_user_profile_aws_sagemaker_artifact"><path codeLine="37" d="M323.64,246.8 C306.46,263.94 285.7363,284.6111 268.5663,301.7511 " fill="none" id="aws_sagemaker_user_profile-to-aws_sagemaker_artifact" style="stroke:#1A83AF;stroke-width:2.0;"/><polygon fill="#1A83AF" points="264.32,305.99,273.5155,302.4625,267.8586,302.4576,267.8636,296.8007,264.32,305.99" style="stroke:#1A83AF;stroke-width:2.0;"/></g><!--SRC=[dP1FJy904CNl_HIRS2QX4WKk9hK9qGinuiqOCdHdOMsxsymE4ZH-TuMgMVeFyJhlD_FUcxMMA30lU2Top9T8Bd2fDWKGv28YijlOPfP4JobGmr5Ld5h39u4Pv2XkCNj5rWbKYSUrJbA3peaBJxg195sHtHXPdcS2uxuaDEnHSGREHSoabnj6BuoSBCTALSdgqTvGXgChh66M9D8tCXWCP3Yf8YUjEdl_4dFzXYBqdpQpZBMODOi3rPboJtWXQqL_zDQCzo2bDYjnwSqUoanaa8xcypL8kztJ2ZBdspX6Gikx0kDQAvoCfHermdTjSBB_d82jMpXOOGufqWA8jOA4nNlmqGWaLkA2iB1EiwLTAoTj3jgqoWNP5-omsRWIKZh30zITel_K2wFnC9e-zwzR6lt_GbabQEntll7fHRzxqFosyssF7lg7zKy0]--></g></svg>

<svg xmlns="http://www.w3.org/2000/svg" width="769" height="352" viewBox="0 0 769 352"><rect width="245" height="39.789" x="122.5" y="306.37" fill="#3D176E" rx="2.5" ry="2.5" style="stroke:#000d19;stroke-width:.5"/><circle cx="137.5" cy="326.264" r="11" fill="#ADD1B2" style="stroke:#181818;stroke-width:1"/><path d="M140.469 331.905q-.578.297-1.219.438-.64.156-1.344.156-2.5 0-3.828-1.64-1.312-1.657-1.312-4.782t1.312-4.781q1.328-1.656 3.828-1.656.703 0 1.344.156.656.156 1.219.453v2.719q-.625-.579-1.219-.844-.594-.281-1.219-.281-1.344 0-2.031 1.078-.687 1.062-.687 3.156t.687 3.172q.688 1.062 2.031 1.062.625 0 1.219-.265.594-.281 1.219-.86z"/><text x="156.5" y="332.15" fill="#D9B8FF" font-family="Helvetica" font-size="17" textLength="203">aws_sagemaker_artifact</text><rect width="316" height="39.789" x="7" y="7" fill="#3D176E" rx="2.5" ry="2.5" style="stroke:#000d19;stroke-width:.5"/><circle cx="22" cy="26.895" r="11" fill="#ADD1B2" style="stroke:#181818;stroke-width:1"/><path d="M24.969 32.535q-.578.297-1.219.438-.64.156-1.344.156-2.5 0-3.828-1.64-1.312-1.657-1.312-4.782t1.312-4.781q1.328-1.656 3.828-1.656.703 0 1.344.156.656.156 1.219.453v2.719q-.625-.578-1.219-.844-.594-.281-1.219-.281-1.343 0-2.031 1.078-.687 1.062-.687 3.156t.687 3.172q.688 1.062 2.031 1.062.625 0 1.219-.265.594-.281 1.219-.86z"/><text x="41" y="32.78" fill="#D9B8FF" font-family="Helvetica" font-size="17" textLength="274">aws_sagemaker_code_repository</text><rect width="248" height="39.789" x="130" y="106.79" fill="#3D176E" rx="2.5" ry="2.5" style="stroke:#000d19;stroke-width:.5"/><circle cx="145" cy="126.684" r="11" fill="#ADD1B2" style="stroke:#181818;stroke-width:1"/><path d="M147.969 132.325q-.578.297-1.219.438-.64.156-1.344.156-2.5 0-3.828-1.64-1.312-1.657-1.312-4.782t1.312-4.781q1.328-1.656 3.828-1.656.703 0 1.344.156.656.156 1.219.453v2.719q-.625-.579-1.219-.844-.594-.281-1.219-.281-1.344 0-2.031 1.078-.687 1.062-.687 3.156t.687 3.172q.688 1.062 2.031 1.062.625 0 1.219-.265.594-.281 1.219-.86z"/><text x="164" y="132.57" fill="#D9B8FF" font-family="Helvetica" font-size="17" textLength="206">aws_sagemaker_domain</text><rect width="242" height="39.789" x="520" y="206.58" fill="#3D176E" rx="2.5" ry="2.5" style="stroke:#000d19;stroke-width:.5"/><circle cx="535" cy="226.475" r="11" fill="#ADD1B2" style="stroke:#181818;stroke-width:1"/><path d="M537.969 232.115q-.578.297-1.219.438-.64.156-1.344.156-2.5 0-3.828-1.64-1.312-1.657-1.312-4.782t1.312-4.781q1.328-1.656 3.828-1.656.703 0 1.344.156.656.156 1.219.453v2.719q-.625-.578-1.219-.844-.594-.281-1.219-.281-1.343 0-2.031 1.078-.687 1.062-.687 3.156t.687 3.172q.688 1.062 2.031 1.062.625 0 1.219-.265.594-.281 1.219-.86z"/><text x="554" y="232.36" fill="#D9B8FF" font-family="Helvetica" font-size="17" textLength="200">aws_sagemaker_project</text><rect width="283" height="39.789" x="201.5" y="206.58" fill="#3D176E" rx="2.5" ry="2.5" style="stroke:#000d19;stroke-width:.5"/><circle cx="216.5" cy="226.475" r="11" fill="#ADD1B2" style="stroke:#181818;stroke-width:1"/><path d="M219.469 232.115q-.578.297-1.219.438-.64.156-1.344.156-2.5 0-3.828-1.64-1.312-1.657-1.312-4.782t1.312-4.781q1.328-1.656 3.828-1.656.703 0 1.344.156.656.156 1.219.453v2.719q-.625-.578-1.219-.844-.594-.281-1.219-.281-1.344 0-2.031 1.078-.687 1.062-.687 3.156t.687 3.172q.688 1.062 2.031 1.062.625 0 1.219-.265.594-.281 1.219-.86z"/><text x="235.5" y="232.36" fill="#D9B8FF" font-family="Helvetica" font-size="17" textLength="241">aws_sagemaker_user_profile</text><path fill="none" d="M147.75 46.99c-12.36 15.04-27.96 37.18-34.75 59.8-5.08 16.94-4.73 22.75 0 39.79 18.77 67.64 73.17 125.34 105.59 155.4" style="stroke:#1a83af;stroke-width:2"/><path fill="#1A83AF" d="m222.99 306.06-3.88-9.052.213 5.652-5.652.214z" style="stroke:#1a83af;stroke-width:2"/><path fill="none" d="M182.58 47.22c15.61 17.14 34.241 37.623 49.831 54.753" style="stroke:#1a83af;stroke-width:2"/><path fill="#1A83AF" d="m236.45 106.41-3.1-9.348-.265 5.65-5.651-.266z" style="stroke:#1a83af;stroke-width:2"/><path fill="none" d="M229.51 146.84c-16.33 14.43-36.41 35.78-45.51 59.74-13.9 36.6 12.922 72.333 35.622 95.293" style="stroke:#1a83af;stroke-width:2"/><path fill="#1A83AF" d="m223.84 306.14-3.483-9.212-.032 5.656-5.657-.032z" style="stroke:#1a83af;stroke-width:2"/><path fill="none" d="M271.58 147.01c15.61 17.14 34.243 37.611 49.833 54.751" style="stroke:#1a83af;stroke-width:2"/><path fill="#1A83AF" d="m325.45 206.2-3.097-9.35-.267 5.651-5.65-.267z" style="stroke:#1a83af;stroke-width:2"/><path fill="none" d="M562.76 246.8c-69.31 17.11-164.155 40.532-233.525 57.662" style="stroke:#1a83af;stroke-width:2"/><path fill="#1A83AF" d="m323.41 305.9 9.696 1.726-4.842-2.925 2.925-4.842z" style="stroke:#1a83af;stroke-width:2"/><path fill="none" d="M323.64 246.8c-17.18 17.14-37.904 37.811-55.074 54.951" style="stroke:#1a83af;stroke-width:2"/><path fill="#1A83AF" d="m264.32 305.99 9.195-3.528-5.656-.004.005-5.657z" style="stroke:#1a83af;stroke-width:2"/></svg>
